!!!OTL: Sommergewinn. / (Streit zwischen Sommer und Winter.)
!!!ARE: Europa, Mitteleuropa, Deutschland
!!!SCT: A0272
!!!TXL: @@DE
!!!YEM: Copyright 1995, estate of Helmut Schaffrath.
**kern	**text	**text
*M3/2	*	*
*met(3)	*	*
*clefC1	*	*
*k[]	*	*
*C:ion	*	*
=1	=1	=1
!LO:TX:a:t=jon.	!	!
2ryy	.	.
2ryy	.	.
{2cc	A._Heut	B.
=2	=2	=2
1cc	iſt	Heut
2dd	ein	iſt
=3	=3	=3
1cc	freu-	auch
2a	-den-	ein
=4	=4	=4
1g	-rei-	frölicher
2g/	-cher	.
=5	=5	=5
1e}	Tag,	tag,
{2e	daß	daß
=6	=6	=6
1f	man	man
2f	den	den
=7	=7	=7
1f	Som-	Som-
2a	-mer	-mer
=8	=8	=8
1g	gwinnen	gwinnen
2g	.	.
=9	=9	=9
1c}	mag.	mag.
{2g	Al-	Al-
=10	=10	=10
1g	-de!	-de!
2f	ir	ir
=11	=11	=11
1e	hir-	hir-
2d	-ten	-ten
=12	=12	=12
1c}	mein,	mein,
{2g	der	der
=13	=13	=13
2.g	Som-	Som-
4a	-mer	-mer
2b	iſt	iſt
=14	=14	=14
1.ccll}	fein.	fein.
==	==	==
!!!GTL: Raethsel-, Wett-, Wunsch- und Luegenlieder
!!!AGN: Romanze, Ballade, Lied
!! Werlin Hs. 1646 S. 1502.
!!!ONB: ESAC (Essen Associative Code) Database: ALTDEU
!!!AMT: simple triple
!!!AIN: vox
!!!EED: Helmut Schaffrath
!!!EEV: 1.0
!!!RDF**kern: l = terminal long
!!!AMD: Ionian
!!!URL-scan: hhttps://rosdok.uni-rostock.de/mcrviewer/recordIdentifier/rosdok_ppn738218359/iview2/phys_0426.iview2?x=-347.4342338965039&y=1620.8060011181515&scale=0.5061627013219534&rotation=0&layout=singlePageLayout&logicalDiv=log_0010
!!!ENC: Anna Maria Matuszewska
!!!EEV: 2024/11/03
*-	*-	*-
